public/art/nature/bush.svg

<svg xmlns="http://www.w3.org/2000/svg" width="32" height="32" shape-rendering="crispEdges" viewBox="0 -0.5 16 16"><path stroke="#264c1e" d="M7 1h2M2 2h2m2 0h1m2 0h1m2 0h2M1 4h3m8 0h3M0 5h1m14 0h1M7 6h2M1 7h1m4 0h1m2 0h1m4 0h1M0 8h1m5 0h1m2 0h1m5 0h1M2 9h2m8 0h2M1 10h1m12 0h1M0 11h1m4 0h1m4 0h1m4 0h1M0 12h1m4 0h1m4 0h1m4 0h1M6 13h1m2 0h1m-4 1h1m2 0h1m-3 1h2"/><path stroke="#193314" d="M4 2h1m6 0h1M1 3h1m3 0h1m4 0h1m3 0h1M4 4h2m4 0h2M6 5h1m2 0h1M0 6h1m14 0h1M2 7h1m10 0h1M3 8h3m1 0h2m1 0h3M0 9h1m5 0h1m2 0h1m5 0h1M5 10h1m4 0h1m-7 2h1m6 0h1M1 13h3m8 0h3M4 14h2m4 0h2"/><path stroke="#49a867" d="M7 2h2M2 3h2m2 0h1m2 0h1m2 0h2M6 4h4M4 5h1m6 0h1M1 6h3m8 0h3M3 10h1m8 0h1M2 11h2m8 0h2M2 12h1m3 0h1m2 0h1m3 0h1m-7 1h2"/><path stroke="#498f7b" d="M4 3h1m6 0h1M5 5h1m1 0h2m1 0h1M4 6h1m1 0h1m2 0h1m1 0h1M3 7h1m8 0h1M1 8h1m12 0h1M1 9h1m2 0h1m6 0h1m2 0h1m-9 1h1m2 0h1m-9 1h1m4 0h1m2 0h1m4 0h1m-8 1h2"/><path stroke="#74c857" d="M7 3h2M1 5h3m8 0h3M2 10h1m10 0h1M1 12h1m12 0h1m-8 2h2"/><path stroke="#417579" d="M5 6h1m4 0h1M4 7h2m1 0h2m1 0h2M2 8h1m10 0h1M5 9h1m1 0h2m1 0h1m-7 1h1m2 0h2m2 0h1m-8 1h1m2 0h2m2 0h1m-9 1h1m8 0h1m-9 1h2m4 0h2"/></svg>

<svg xmlns="http://www.w3.org/2000/svg" width="32" height="32" viewBox="0 -0.5 16 16" shape-rendering="crispEdges">
<path stroke="#264c1e" d="M7 1h2M2 2h2M6 2h1M9 2h1M12 2h2M1 4h3M12 4h3M0 5h1M15 5h1M7 6h2M1 7h1M6 7h1M9 7h1M14 7h1M0 8h1M6 8h1M9 8h1M15 8h1M2 9h2M12 9h2M1 10h1M14 10h1M0 11h1M5 11h1M10 11h1M15 11h1M0 12h1M5 12h1M10 12h1M15 12h1M6 13h1M9 13h1M6 14h1M9 14h1M7 15h2" />
<path stroke="#193314" d="M4 2h1M11 2h1M1 3h1M5 3h1M10 3h1M14 3h1M4 4h2M10 4h2M6 5h1M9 5h1M0 6h1M15 6h1M2 7h1M13 7h1M3 8h3M7 8h2M10 8h3M0 9h1M6 9h1M9 9h1M15 9h1M5 10h1M10 10h1M4 12h1M11 12h1M1 13h3M12 13h3M4 14h2M10 14h2" />
<path stroke="#49a867" d="M7 2h2M2 3h2M6 3h1M9 3h1M12 3h2M6 4h4M4 5h1M11 5h1M1 6h3M12 6h3M3 10h1M12 10h1M2 11h2M12 11h2M2 12h1M6 12h1M9 12h1M13 12h1M7 13h2" />
<path stroke="#498f7b" d="M4 3h1M11 3h1M5 5h1M7 5h2M10 5h1M4 6h1M6 6h1M9 6h1M11 6h1M3 7h1M12 7h1M1 8h1M14 8h1M1 9h1M4 9h1M11 9h1M14 9h1M6 10h1M9 10h1M1 11h1M6 11h1M9 11h1M14 11h1M7 12h2" />
<path stroke="#74c857" d="M7 3h2M1 5h3M12 5h3M2 10h1M13 10h1M1 12h1M14 12h1M7 14h2" />
<path stroke="#417579" d="M5 6h1M10 6h1M4 7h2M7 7h2M10 7h2M2 8h1M13 8h1M5 9h1M7 9h2M10 9h1M4 10h1M7 10h2M11 10h1M4 11h1M7 11h2M11 11h1M3 12h1M12 12h1M4 13h2M10 13h2" />
</svg>
